X:133
T:Rabbit Stew
T:le Saut du Lapin
M:4/4
L:1/8
K:G
|: B3A GFGB | dBGB A4 | ABcB ABcd | edef (3efe d2 |
B3A GFGB | dBGB A4 | ABcB ABcd | e2 f2 g4 :|
|: gdBc d2 ef | gdBc d4 | dDDd DDdD | edef (3efe d2 |
gdBc d2 ef | gdBc d4 | dDDd DDdd | e2 f2 g4 :|
